X: 379
T: Joan's Placket
P: Longways for as many as will
%R: jig
N: Handwritten comment in DMDfD:  Scots Air "Jumpin' John"
%R: jig
Z: 2012-2013 John Chambers <jc:trillian.mit.edu>
B: "The Dancing-Master: Containing Directions and Tunes for Dancing" printed by W. Pearson for John Walsh, London ca. 1709
S: 7: DMDfD http://digital.nls.uk/special-collections-of-printed-music/pageturner.cfm?id=89751228 p.30
M: 6/4
L: 1/4
K: G
% - - - - - - - - - - - - - - - - - - - - - - - - -
G/A/ |\
B2B B>AG | A2A A2d/c/ |\
B>cd A2G | G3- G2 ][ e/f/ |\
g2d e2d | g2d e2d |
g2d B>AG | A2A A2d/c/ |\
B2B B>AG | A2A A2d/c/ |\
B>cd A2G | G3- G2 |]
% - - - - - - - - - - - - - - - - - - - - - - - - -
%%begintext align
%% The 1. cu. sides of one side .| and on the other side :| Then dance to one another and turn .| And
%% dance to one another the second time and turn :| The man goes down on the wo. side, and the we.
%% on the man's side, the rest do the same.
%% [DMDfD]
%%endtext

%%sep 1 1 500
%%sep 1 1 500
